X:665
T:Brudmarsch # 665
T:från Sorunda
M:2/4
L:1/8
Q:90
K:D
Ad dd| de fd| c(A/B/ A)A| A3A{BA}|BG/G/ GG|B2d2|AB AG|
Fd AG|FG EC|E(D/E/ D)D| D2z2:: AA/A/ AA/A/|Ad/f/ aa|AA/A/ AA/A/|Ad/f/ aa|
ba/g/ ee/e/| gf/e/ dc/B/|Ac/e/ ac|[dF]2 z2:: ff ff| f/e/d/c/ B2|
ee ee| e/d/c/B/ A2|AF/A/ dd|BG/B/ ee|cA/c/ ac|[dF]2z2:|

